X: 2
T:Constant Billy, Ilmington (CJS)
M:6/8
L:1/8
S:CJS (MSS)
A:Ilmington
P:A(AB2)4
K:G
P:A
|:D|G2d B>AB|c2A A>FD|B2G E>FG|D>EF G2:|
P:B
  z|B2c d>BG|B2c d3  |B2d g3  |B2c  d3|
B2d B>AB|c2A A>GA|B2G E>FG|D>EF G2||
